X:1
T: The Excelsior Hornpipe
C:
R:Reel
Q: 232
K:A
M:4/4
L:1/8
|:A,C EC A,A cA|EG BG Ac ec|df dB ce cA|((3BcB) ((3AGF) ((3EFE) ((3DCB,)|
A,C EC A,A cA|EG BG Ac ec|df Bd GB EG|A2 c2 A2 z2:|
|:ce ae ce fe|ce ae dc BA|ag ae fg ae|((3gba) ((3gfe) ((3efe) ((3dcB)|
ce ae ce fe|ce ae dc BA|ag ae fd BG|A2 c2 A2 z2:|
